X:15901
M:9+6/8
K:G
P:A
g2e d2B GAB |A2F D3 |E2F G2A BcB |1,3 A2F D2d :|2,4 AGF G3 :|
P:B
A2F D3 d3 |B2d A2F |G2E c3 B3 |1,3 A2F DFG :|2,4 AGF G3 :|

